dataset/leocad/icon.svg

<?xml version="1.0" encoding="UTF-8" standalone="no"?>
<svg
   width="128"
   height="128"
   id="svg11300"
   version="1.0"
   style="display:inline;enable-background:new"
   viewBox="0 0 128 128"
   xml:space="preserve"
   xmlns:xlink="http://www.w3.org/1999/xlink"
   xmlns="http://www.w3.org/2000/svg"
   xmlns:svg="http://www.w3.org/2000/svg"
   xmlns:rdf="http://www.w3.org/1999/02/22-rdf-syntax-ns#"
   xmlns:cc="http://creativecommons.org/ns#"
   xmlns:dc="http://purl.org/dc/elements/1.1/"><title
     id="title4162">Adwaita Icon Template</title><defs
     id="defs3"><linearGradient
       id="linearGradient2"><stop
         style="stop-color:#981311;stop-opacity:1;"
         offset="0"
         id="stop2" /><stop
         style="stop-color:#ea413e;stop-opacity:1;"
         offset="0.0296836"
         id="stop4" /><stop
         style="stop-color:#971311;stop-opacity:1;"
         offset="0.07283434"
         id="stop5" /><stop
         style="stop-color:#981311;stop-opacity:1;"
         offset="0.92941451"
         id="stop6" /><stop
         style="stop-color:#ea413e;stop-opacity:1;"
         offset="0.96007955"
         id="stop7" /><stop
         style="stop-color:#981311;stop-opacity:1;"
         offset="1"
         id="stop3" /></linearGradient><linearGradient
       id="linearGradient15"><stop
         style="stop-color:#971211;stop-opacity:1;"
         offset="0"
         id="stop15" /><stop
         style="stop-color:#e9423f;stop-opacity:1;"
         offset="0.41758361"
         id="stop17" /><stop
         style="stop-color:#971311;stop-opacity:1;"
         offset="0.80810642"
         id="stop18" /><stop
         style="stop-color:#e72a27;stop-opacity:1;"
         offset="1"
         id="stop16" /></linearGradient><linearGradient
       xlink:href="#linearGradient15"
       id="linearGradient28"
       x1="42.000107"
       y1="31.5"
       x2="86.000107"
       y2="31.5"
       gradientUnits="userSpaceOnUse" /><linearGradient
       xlink:href="#linearGradient2"
       id="linearGradient3"
       x1="20.000214"
       y1="64"
       x2="108"
       y2="64"
       gradientUnits="userSpaceOnUse" /></defs><metadata
     id="metadata4"><rdf:RDF><cc:Work
         rdf:about=""><dc:format>image/svg+xml</dc:format><dc:type
           rdf:resource="http://purl.org/dc/dcmitype/StillImage" /><dc:creator><cc:Agent><dc:title>GNOME Design Team</dc:title></cc:Agent></dc:creator><dc:source /><cc:license
           rdf:resource="http://creativecommons.org/licenses/by-sa/4.0/" /><dc:title>Adwaita Icon Template</dc:title><dc:subject><rdf:Bag /></dc:subject><dc:date /><dc:rights><cc:Agent><dc:title /></cc:Agent></dc:rights><dc:publisher><cc:Agent><dc:title /></cc:Agent></dc:publisher><dc:identifier /><dc:relation /><dc:language /><dc:coverage /><dc:description /><dc:contributor><cc:Agent><dc:title /></cc:Agent></dc:contributor></cc:Work><cc:License
         rdf:about="http://creativecommons.org/licenses/by-sa/4.0/"><cc:permits
           rdf:resource="http://creativecommons.org/ns#Reproduction" /><cc:permits
           rdf:resource="http://creativecommons.org/ns#Distribution" /><cc:requires
           rdf:resource="http://creativecommons.org/ns#Notice" /><cc:requires
           rdf:resource="http://creativecommons.org/ns#Attribution" /><cc:permits
           rdf:resource="http://creativecommons.org/ns#DerivativeWorks" /><cc:requires
           rdf:resource="http://creativecommons.org/ns#ShareAlike" /></cc:License></rdf:RDF></metadata><path
     id="rect1109"
     style="display:inline;vector-effect:none;fill:url(#linearGradient3);stroke-width:0.0118544px;marker:none;marker-start:none;marker-mid:none;marker-end:none;enable-background:new;opacity:1;fill-opacity:1"
     d="M 108,16.006378 V 111.99362 C 108,116.42916 104.07521,120 99.200018,120 H 28.800196 c -4.87519,0 -8.799982,-3.57084 -8.799982,-8.00638 V 16.006378 C 20.000214,11.570845 23.925006,8 28.800196,8 H 99.200018 C 104.07521,8 108,11.570845 108,16.006378 Z"
     clip-path="none"
     mask="none" /><path
     d="m 27.99819,8 h 72.00383 C 104.42041,8 108,11.16936 108,15.078108 V 46.921892 C 108,50.83064 104.42041,54 100.00202,54 H 27.99819 c -4.418387,0 -7.997976,-3.16936 -7.997976,-7.078108 V 15.078108 C 20.000214,11.16936 23.579803,8 27.99819,8 Z m 0,0"
     fill="#cdab8f"
     id="path1"
     style="fill:#c61715;fill-opacity:1;stroke-width:0.963576"
     clip-path="none"
     mask="none" /><path
     id="path27"
     style="display:inline;fill:url(#linearGradient28);stroke-width:5.12944;stroke-linecap:round;stroke-linejoin:round;enable-background:new"
     d="m 86.000107,31.500001 c 0,6.351274 -9.849736,11.499999 -22,11.499999 -12.150264,0 -22,-5.148725 -22,-11.499999 v -12 c 0,-5.4339 12.196379,0.499999 22,0.499999 9.696296,0 22,-5.913463 22,-0.499999 z"
     clip-path="none"
     mask="none" /><path
     id="path2164-0"
     style="display:inline;fill:#e72825;stroke-width:5.12944;stroke-linecap:round;stroke-linejoin:round;enable-background:new"
     d="m 86.000107,19.500001 a 22,11.5 0 0 1 -22,11.499999 22,11.5 0 0 1 -22,-11.499999 22,11.5 0 0 1 22,-11.500001 22,11.5 0 0 1 22,11.500001 z"
     clip-path="none"
     mask="none" /></svg>

<svg xmlns="http://www.w3.org/2000/svg" xmlns:xlink="http://www.w3.org/1999/xlink" xml:space="preserve" width="128" height="128" style="display:inline" viewBox="0 0 128 128"><title>Adwaita Icon Template</title><defs><linearGradient id="b"><stop offset="0" style="stop-color:#981311;stop-opacity:1"/><stop offset=".03" style="stop-color:#ea413e;stop-opacity:1"/><stop offset=".073" style="stop-color:#971311;stop-opacity:1"/><stop offset=".929" style="stop-color:#981311;stop-opacity:1"/><stop offset=".96" style="stop-color:#ea413e;stop-opacity:1"/><stop offset="1" style="stop-color:#981311;stop-opacity:1"/></linearGradient><linearGradient id="a"><stop offset="0" style="stop-color:#971211;stop-opacity:1"/><stop offset=".418" style="stop-color:#e9423f;stop-opacity:1"/><stop offset=".808" style="stop-color:#971311;stop-opacity:1"/><stop offset="1" style="stop-color:#e72a27;stop-opacity:1"/></linearGradient><linearGradient xlink:href="#a" id="d" x1="42" x2="86" y1="31.5" y2="31.5" gradientUnits="userSpaceOnUse"/><linearGradient xlink:href="#b" id="c" x1="20" x2="108" y1="64" y2="64" gradientUnits="userSpaceOnUse"/></defs><path d="M108 16.006v95.988c0 4.435-3.925 8.006-8.8 8.006H28.8c-4.875 0-8.8-3.57-8.8-8.006V16.006C20 11.571 23.925 8 28.8 8h70.4c4.875 0 8.8 3.57 8.8 8.006" style="display:inline;vector-effect:none;fill:url(#c);stroke-width:.0118544px;marker:none;marker-start:none;marker-mid:none;marker-end:none;opacity:1;fill-opacity:1"/><path fill="#cdab8f" d="M27.998 8h72.004C104.42 8 108 11.17 108 15.078v31.844c0 3.909-3.58 7.078-7.998 7.078H27.998C23.58 54 20 50.83 20 46.922V15.078C20 11.17 23.58 8 27.998 8m0 0" style="fill:#c61715;fill-opacity:1;stroke-width:.963576"/><path d="M86 31.5C86 37.851 76.15 43 64 43s-22-5.149-22-11.5v-12c0-5.434 12.196.5 22 .5 9.696 0 22-5.913 22-.5z" style="display:inline;fill:url(#d);stroke-width:5.12944;stroke-linecap:round;stroke-linejoin:round"/><path d="M86 19.5A22 11.5 0 0 1 64 31a22 11.5 0 0 1-22-11.5A22 11.5 0 0 1 64 8a22 11.5 0 0 1 22 11.5" style="display:inline;fill:#e72825;stroke-width:5.12944;stroke-linecap:round;stroke-linejoin:round"/></svg>
